X:18
T:Drops of Brandy. WCF.018
M:9/8
L:1/8
Q:3/8=120
S:Wm Clarke MS, Feltwell, 1858
O:England
A:Norfolk
N:Time sig given as 6/8 when it is actually 9/8.
Z:Transcription Lyn Law 04/2006
K:G
“_Time Sig. 6/8 in MS”d2c BGB BGB|d2c BGB c2A|\
d2c BGB BGB|cBc A2B cBA:|!
|:G2g gdB gdB|G2g gdB cBA|\
G2g gdB gdB|cBc A2B cBA:|]

